X: 29
T:College Hornpipe
M:4/4
L:1/8
R:Hornpipe
K:Bb
BA|"Bb"B2B,2B,2FE|"Bb"DFB2 B2 dB|"F"c2C2C2 cB|"F"Ac f2 f2 ga|!
"Bb"bagf "Eb"gfed|"Eb"edcB "Bb"BAGF|"Eb"GB"F"Ac "Bb"Bd"F"ce|"Bb"d2 B2B2:
|!
|:FE|"Bb"DFBF DFBF|"Eb"G2E2E2 GF|"C"=EGcG EGcG|"F"A2F2F2 GA|!
"Bb"B2f2 "Eb"gfed|"Eb"edcB "Bb"BAGF|"Eb"GB"F"Ac "Bb"Bd"F"ce|"Bb"d2 B2 B2
:||
